packages/appstore/src/assets/svgs/wallet/paytrust88-light.svg

<svg width="128" height="80" viewBox="0 0 128 80" fill="none" xmlns="http://www.w3.org/2000/svg">
<path d="M40.7402 32.64V40.64C40.7202 41.1019 40.788 41.5634 40.9402 42C41.0702 42.3729 41.2782 42.7138 41.5502 43C41.8033 43.2556 42.111 43.4505 42.4502 43.57C42.8059 43.6993 43.1818 43.7637 43.5602 43.76C43.9421 43.7595 44.3186 43.6705 44.6602 43.5C44.9992 43.3258 45.304 43.0921 45.5602 42.81C45.8185 42.5153 46.0218 42.1766 46.1602 41.81C46.307 41.4549 46.3818 41.0742 46.3802 40.69V32.69H50.1702V45.27C50.1677 46.2489 49.9599 47.2164 49.5602 48.11C49.1806 48.9867 48.6299 49.7789 47.9402 50.44C47.2523 51.1054 46.4448 51.6347 45.5602 52C44.6369 52.3913 43.643 52.5887 42.6402 52.58L40.7102 52.56V48.87H42.8102C43.1507 48.869 43.4886 48.8116 43.8102 48.7C44.1642 48.5872 44.5008 48.4257 44.8102 48.22C45.0992 48.0128 45.3554 47.7634 45.5702 47.48C45.7905 47.1988 45.9721 46.8894 46.1102 46.56L44.8502 47.07C44.4406 47.2377 44.0028 47.3259 43.5602 47.33C42.6863 47.3412 41.818 47.1885 41.0002 46.88C40.2197 46.5743 39.5064 46.1191 38.9002 45.54C38.2877 44.9431 37.8074 44.2243 37.4902 43.43C37.1414 42.5423 36.9748 41.5935 37.0002 40.64V32.64H40.7402ZM28.6302 32.17C29.0953 32.1723 29.5585 32.2293 30.0102 32.34C30.4648 32.4567 30.9069 32.6174 31.3302 32.82C31.7597 33.0213 32.1711 33.2588 32.5602 33.53C32.9428 33.7987 33.307 34.0927 33.6502 34.41L35.0702 32.74H36.0002V46.81H35.1202L33.7002 44.87C33.3502 45.17 32.9802 45.46 32.6002 45.73C32.2109 45.9979 31.7994 46.2321 31.3702 46.43C30.9287 46.6278 30.4702 46.7851 30.0002 46.9C29.552 47.0112 29.0921 47.0683 28.6302 47.0701C27.658 47.0751 26.6927 46.9058 25.7802 46.57C23.9995 45.9147 22.5815 44.5331 21.8802 42.77C21.4765 41.7698 21.2792 40.6984 21.3002 39.62C21.2907 38.5913 21.4879 37.5711 21.8802 36.62C22.2411 35.7336 22.7748 34.928 23.4502 34.25C24.1165 33.589 24.9089 33.0687 25.7802 32.72C26.6842 32.3491 27.6531 32.1621 28.6302 32.17ZM12.9402 27.89C13.6159 27.8908 14.2885 27.9816 14.9402 28.16C15.5844 28.3357 16.2029 28.5946 16.7802 28.93C17.911 29.5945 18.8593 30.5291 19.5402 31.65C19.8811 32.2152 20.1435 32.8241 20.3202 33.46C20.5049 34.1107 20.5991 34.7837 20.6002 35.46C20.6107 36.4715 20.4062 37.4736 20.0002 38.4C19.6112 39.3025 19.0509 40.1209 18.3502 40.81C17.6416 41.4979 16.8107 42.0473 15.9002 42.43C14.95 42.826 13.9297 43.0267 12.9002 43.02H9.09023V46.81H5.24023V27.89H12.9402ZM77.3802 27.89L69.4602 31.68H57.7802V46.81H54.0002V31.68H46.3802V27.89H77.3802ZM28.6702 35.82C28.1888 35.8151 27.7107 35.8999 27.2602 36.07C26.8245 36.2296 26.4287 36.4822 26.1002 36.81C25.7681 37.1524 25.5064 37.5567 25.3302 38C24.9567 39.0614 24.9567 40.2186 25.3302 41.28C25.5041 41.7304 25.7659 42.1417 26.1002 42.49C26.4314 42.8145 26.8264 43.0665 27.2602 43.23C27.7119 43.3954 28.1892 43.4801 28.6702 43.4801C29.1597 43.4825 29.6427 43.3694 30.0802 43.15C30.5161 42.9408 30.9094 42.6526 31.2402 42.3C31.5656 41.9316 31.8229 41.5084 32.0002 41.05C32.197 40.5985 32.3023 40.1125 32.3102 39.62H32.3202C32.3092 39.1269 32.2004 38.6408 32.0002 38.19C31.8167 37.7528 31.5597 37.3504 31.2402 37C30.9099 36.6443 30.5166 36.3528 30.0802 36.14C29.6403 35.9285 29.1583 35.8191 28.6702 35.82ZM9.09023 31.68V39.25H12.9402C13.4523 39.2539 13.9596 39.1518 14.4302 38.95C14.8868 38.7585 15.3039 38.4838 15.6602 38.14C16.0091 37.7934 16.2876 37.3825 16.4802 36.93C16.8804 35.9909 16.8804 34.9292 16.4802 33.99C16.2849 33.5419 16.0067 33.1348 15.6602 32.79C15.3075 32.4466 14.8892 32.178 14.4302 32C13.9596 31.7983 13.4523 31.6961 12.9402 31.7L9.09023 31.68Z" fill="#555555"/>
<path d="M101.65 27V32.71H107.93C107.93 32.71 107.59 35.29 109.22 36.29H101.6V40.52C101.598 40.8838 101.67 41.2443 101.81 41.58C102.105 42.2349 102.638 42.7532 103.3 43.03C103.646 43.1747 104.016 43.2495 104.39 43.25H107.17V46.79H104.39C103.529 46.7977 102.675 46.6311 101.88 46.3C101.117 45.9813 100.421 45.5197 99.8303 44.94C99.2432 44.3685 98.7713 43.6895 98.4403 42.94C98.1071 42.1664 97.9369 41.3323 97.9403 40.49V36.26H88.9403C88.7017 36.2576 88.4731 36.3556 88.3103 36.53C88.1363 36.6923 88.0415 36.9222 88.0503 37.16C88.0421 37.4035 88.1364 37.6393 88.3103 37.81C88.47 37.9888 88.7007 38.0877 88.9403 38.08H92.6703C93.264 38.0805 93.853 38.1854 94.4103 38.39C94.9342 38.5881 95.4159 38.8832 95.8303 39.26C96.2532 39.6283 96.5939 40.0815 96.8303 40.59C97.0649 41.1258 97.1842 41.7051 97.1803 42.29C97.1841 42.8911 97.065 43.4866 96.8303 44.04C96.5891 44.5719 96.2498 45.0537 95.8303 45.46C95.4259 45.8818 94.9437 46.2214 94.4103 46.46C93.8595 46.6918 93.2679 46.8108 92.6703 46.81H82.8003L81.5803 45.16C81.2807 45.4278 80.9633 45.6751 80.6303 45.9C80.2942 46.132 79.9397 46.336 79.5703 46.51C79.2006 46.6822 78.8156 46.8194 78.4203 46.92C78.0315 47.0197 77.6317 47.0701 77.2303 47.07C76.3687 47.0787 75.5133 46.9225 74.7103 46.61C73.9429 46.3096 73.2403 45.8649 72.6403 45.3C72.0378 44.7105 71.5644 44.0022 71.2503 43.22C70.8997 42.3532 70.7262 41.4249 70.7403 40.49V38.84C70.9803 37.72 74.4203 35.24 74.4203 35.24V40.53C74.4147 40.9642 74.4928 41.3954 74.6503 41.8C74.783 42.1515 74.9873 42.4717 75.2503 42.74C75.5024 42.9968 75.8056 43.1978 76.1403 43.33C76.4887 43.4604 76.8583 43.5248 77.2303 43.52C77.603 43.5233 77.9707 43.434 78.3003 43.26C78.6353 43.0928 78.937 42.8657 79.1903 42.59C79.4472 42.2961 79.6473 41.957 79.7803 41.59C79.9268 41.2418 80.0016 40.8677 80.0003 40.49V32.68H83.7403V43.3H92.7403C92.9789 43.3024 93.2075 43.2044 93.3703 43.03C93.5443 42.8677 93.6391 42.6378 93.6303 42.4C93.6577 42.1952 93.5537 41.9952 93.3703 41.9C93.1713 41.8154 92.9565 41.7744 92.7403 41.78H88.9903C88.3893 41.7827 87.794 41.6636 87.2403 41.43C86.7061 41.1876 86.2213 40.8486 85.8103 40.43C85.3895 40.0209 85.0502 39.5356 84.8103 39C84.5838 38.4213 84.4849 37.8005 84.5203 37.18C84.5127 36.5786 84.632 35.9823 84.8703 35.43C85.3112 34.3488 86.1691 33.4909 87.2503 33.05C87.8026 32.8117 88.3988 32.6924 89.0003 32.7H98.0003V27H101.65ZM112.99 27.2C113.353 27.3237 113.692 27.5098 113.99 27.75C114.25 27.9814 114.464 28.2595 114.62 28.57C114.78 28.8786 114.859 29.2226 114.85 29.57C114.85 29.745 114.829 29.9194 114.79 30.09C114.751 30.264 114.697 30.4346 114.63 30.6C114.557 30.7639 114.47 30.9212 114.37 31.07C114.273 31.2134 114.159 31.3444 114.03 31.46C114.23 31.5772 114.415 31.7183 114.58 31.88C114.746 32.0424 114.887 32.2276 115 32.43C115.118 32.6269 115.209 32.8388 115.27 33.06C115.314 33.2839 115.327 33.5126 115.31 33.74C115.315 34.1331 115.222 34.5213 115.04 34.87C114.856 35.2164 114.601 35.5198 114.29 35.76C113.962 36.0208 113.589 36.2206 113.19 36.35C112.316 36.6301 111.375 36.6301 110.5 36.35C110.101 36.2206 109.729 36.0208 109.4 35.76C109.09 35.5198 108.834 35.2164 108.65 34.87C108.469 34.5213 108.376 34.1331 108.38 33.74C108.381 33.5071 108.411 33.2752 108.47 33.05C108.535 32.8301 108.626 32.6187 108.74 32.42C108.858 32.2235 108.999 32.0421 109.16 31.88C109.327 31.712 109.515 31.5673 109.72 31.45C109.589 31.3368 109.475 31.2054 109.38 31.06C109.278 30.9124 109.191 30.755 109.12 30.59C109.048 30.4302 108.994 30.2624 108.96 30.09C108.921 29.9194 108.901 29.745 108.9 29.57C108.897 29.2232 108.976 28.8804 109.13 28.57C109.291 28.2623 109.504 27.9848 109.76 27.75C110.04 27.5148 110.358 27.3288 110.7 27.2C111.44 26.9335 112.25 26.9335 112.99 27.2ZM120.4 27.2C120.743 27.3288 121.06 27.5148 121.34 27.75C121.603 27.981 121.82 28.2591 121.98 28.57C122.135 28.8804 122.214 29.2232 122.21 29.57C122.21 29.745 122.189 29.9194 122.15 30.09C122.111 30.264 122.057 30.4346 121.99 30.6C121.917 30.7639 121.83 30.9212 121.73 31.07C121.633 31.2134 121.519 31.3444 121.39 31.46C121.81 31.6945 122.156 32.0407 122.39 32.46C122.505 32.6573 122.592 32.8692 122.65 33.09C122.689 33.3045 122.695 33.5235 122.67 33.74C122.675 34.1331 122.582 34.5213 122.4 34.87C122.213 35.2143 121.958 35.5171 121.65 35.76C121.322 36.0208 120.949 36.2206 120.55 36.35C119.676 36.6301 118.735 36.6301 117.86 36.35C117.459 36.2185 117.084 36.0189 116.75 35.76C116.446 35.5169 116.194 35.214 116.01 34.87C115.829 34.5213 115.736 34.1331 115.74 33.74C115.741 33.5071 115.771 33.2752 115.83 33.05C115.891 32.8286 115.982 32.6166 116.1 32.42C116.218 32.2235 116.359 32.0421 116.52 31.88C116.687 31.712 116.875 31.5673 117.08 31.45C116.949 31.3368 116.835 31.2054 116.74 31.06C116.634 30.9148 116.547 30.7569 116.48 30.59C116.404 30.4305 116.347 30.2627 116.31 30.09C116.296 29.917 116.296 29.743 116.31 29.57C116.301 29.2226 116.381 28.8786 116.54 28.57C116.694 28.2574 116.908 27.9786 117.17 27.75C117.45 27.5148 117.768 27.3288 118.11 27.2C118.85 26.9335 119.66 26.9335 120.4 27.2ZM111.18 32.36C110.986 32.4352 110.803 32.5398 110.64 32.67C110.491 32.7977 110.368 32.9541 110.28 33.13C110.107 33.4832 110.107 33.8968 110.28 34.25C110.372 34.415 110.494 34.5609 110.64 34.68C110.804 34.8038 110.986 34.9017 111.18 34.97C111.614 35.1034 112.077 35.1034 112.51 34.97C112.706 34.906 112.889 34.8079 113.05 34.68C113.202 34.5641 113.328 34.4176 113.42 34.25C113.504 34.0752 113.549 33.884 113.55 33.69C113.549 33.496 113.504 33.3048 113.42 33.13C113.332 32.9516 113.206 32.7946 113.05 32.67C112.89 32.5357 112.707 32.4308 112.51 32.36C112.079 32.2137 111.612 32.2137 111.18 32.36ZM118.54 32.36C118.346 32.4352 118.163 32.5398 118 32.67C117.851 32.7977 117.728 32.9541 117.64 33.13C117.454 33.48 117.454 33.9 117.64 34.25C117.732 34.415 117.854 34.5609 118 34.68C118.164 34.8038 118.346 34.9017 118.54 34.97C118.974 35.1034 119.437 35.1034 119.87 34.97C120.065 34.9039 120.248 34.8059 120.41 34.68C120.559 34.5637 120.682 34.4171 120.77 34.25C120.862 34.0777 120.91 33.8853 120.91 33.69C120.91 33.4947 120.862 33.3023 120.77 33.13C120.686 32.9521 120.563 32.795 120.41 32.67C120.248 32.5378 120.066 32.4331 119.87 32.36C119.439 32.2137 118.972 32.2137 118.54 32.36ZM119.22 28.7C119.056 28.6989 118.893 28.7295 118.74 28.79C118.456 28.88 118.221 29.0823 118.09 29.35C118.032 29.4788 118.001 29.6185 118 29.76C117.998 29.9018 118.029 30.0422 118.09 30.17C118.154 30.2962 118.242 30.4084 118.35 30.5C118.466 30.5964 118.598 30.6709 118.74 30.72C118.895 30.7724 119.057 30.7995 119.22 30.8C119.377 30.7995 119.533 30.7724 119.68 30.72C119.823 30.6709 119.955 30.5964 120.07 30.5C120.181 30.4113 120.27 30.2984 120.33 30.17C120.395 30.0429 120.429 29.9026 120.43 29.76C120.427 29.6178 120.392 29.478 120.33 29.35C120.268 29.2202 120.179 29.1045 120.07 29.01C119.955 28.9136 119.823 28.8391 119.68 28.79C119.535 28.7295 119.378 28.6989 119.22 28.7ZM111.86 28.7C111.696 28.6989 111.533 28.7295 111.38 28.79C111.241 28.8338 111.112 28.9052 111 29C110.891 29.0945 110.803 29.2102 110.74 29.34C110.673 29.4662 110.639 29.6071 110.64 29.75C110.636 29.8932 110.671 30.0347 110.74 30.16C110.801 30.2884 110.89 30.4013 111 30.49C111.111 30.5884 111.24 30.6632 111.38 30.71C111.703 30.8286 112.058 30.8286 112.38 30.71C112.519 30.6587 112.647 30.5843 112.76 30.49C112.871 30.4013 112.96 30.2884 113.02 30.16C113.071 30.0331 113.088 29.8954 113.07 29.76C113.072 29.6171 113.037 29.4762 112.97 29.35C112.908 29.2202 112.819 29.1045 112.71 29.01C112.597 28.9157 112.469 28.8413 112.33 28.79C112.181 28.7305 112.021 28.6999 111.86 28.7Z" fill="#555555"/>
<path d="M58.2395 34.0001C59.1495 35.0001 63.4295 40.2201 64.7895 46.4901C64.7895 46.5901 64.9595 46.6101 64.9895 46.4901C65.8395 44.2101 71.2095 31.3601 85.3895 28.6801C85.5095 28.6801 85.5195 28.4801 85.3895 28.4701C82.7395 28.2201 72.9595 28.0801 64.8895 37.9401C64.8095 38.0401 64.6995 38.0401 64.6395 37.9401C63.3839 35.5707 61.003 34.0086 58.3295 33.8001C58.2821 33.7999 58.239 33.8277 58.2196 33.8709C58.2001 33.9141 58.2079 33.9648 58.2395 34.0001Z" fill="#F3BA0C"/>
</svg>

<svg width="128" height="80" fill="none" xmlns="http://www.w3.org/2000/svg"><path d="M40.74 32.64v8c-.02.462.048.923.2 1.36.13.373.338.714.61 1 .253.256.561.45.9.57.356.13.732.194 1.11.19.382 0 .759-.09 1.1-.26.34-.174.644-.408.9-.69.258-.295.462-.633.6-1a2.9 2.9 0 0 0 .22-1.12v-8h3.79v12.58a7 7 0 0 1-.61 2.84 7.178 7.178 0 0 1-1.62 2.33A7.59 7.59 0 0 1 45.56 52a7.32 7.32 0 0 1-2.92.58l-1.93-.02v-3.69h2.1c.34-.001.679-.058 1-.17a4 4 0 0 0 1-.48c.29-.207.545-.457.76-.74.22-.281.402-.59.54-.92l-1.26.51a3.49 3.49 0 0 1-1.29.26 7 7 0 0 1-2.56-.45 6.44 6.44 0 0 1-2.1-1.34 6.11 6.11 0 0 1-1.41-2.11 7.111 7.111 0 0 1-.49-2.79v-8h3.74zm-12.11-.47c.465.002.928.06 1.38.17a7.21 7.21 0 0 1 1.32.48c.43.201.841.439 1.23.71.383.269.747.563 1.09.88l1.42-1.67H36v14.07h-.88l-1.42-1.94c-.35.3-.72.59-1.1.86-.39.268-.8.502-1.23.7-.441.198-.9.355-1.37.47a5.783 5.783 0 0 1-1.37.17 8.131 8.131 0 0 1-2.85-.5 6.68 6.68 0 0 1-3.9-3.8 8 8 0 0 1-.58-3.15 7.682 7.682 0 0 1 .58-3 7.211 7.211 0 0 1 1.57-2.37 7.003 7.003 0 0 1 2.33-1.53 7.352 7.352 0 0 1 2.85-.55zm-15.69-4.28a7.692 7.692 0 0 1 3.84 1.04 7.93 7.93 0 0 1 2.76 2.72c.341.565.604 1.174.78 1.81.185.65.28 1.324.28 2a7.14 7.14 0 0 1-.6 2.94 7.598 7.598 0 0 1-1.65 2.41 7.927 7.927 0 0 1-2.45 1.62c-.95.396-1.97.597-3 .59H9.09v3.79H5.24V27.89h7.7zm64.44 0-7.92 3.79H57.78v15.13H54V31.68h-7.62v-3.79h31zm-48.71 7.93a3.88 3.88 0 0 0-1.41.25c-.436.16-.831.412-1.16.74a3.64 3.64 0 0 0-.77 1.19 4.94 4.94 0 0 0 0 3.28c.174.45.436.862.77 1.21.331.325.726.576 1.16.74a4.1 4.1 0 0 0 1.41.25c.49.003.973-.11 1.41-.33a3.91 3.91 0 0 0 1.16-.85c.326-.368.583-.792.76-1.25.197-.451.302-.938.31-1.43h.01a3.728 3.728 0 0 0-.32-1.43 4.15 4.15 0 0 0-.76-1.19 3.939 3.939 0 0 0-1.16-.86 3.24 3.24 0 0 0-1.41-.32zM9.09 31.68v7.57h3.85a3.709 3.709 0 0 0 1.49-.3 3.999 3.999 0 0 0 1.23-.81c.35-.347.628-.758.82-1.21.4-.94.4-2 0-2.94a3.88 3.88 0 0 0-.82-1.2 3.66 3.66 0 0 0-1.23-.79 3.71 3.71 0 0 0-1.49-.3l-3.85-.02zM101.65 27v5.71h6.28s-.34 2.58 1.29 3.58h-7.62v4.23c-.002.364.07.724.21 1.06a2.833 2.833 0 0 0 2.58 1.67h2.78v3.54h-2.78a6.38 6.38 0 0 1-2.51-.49 6.508 6.508 0 0 1-2.05-1.36 6.399 6.399 0 0 1-1.39-2 6.131 6.131 0 0 1-.5-2.45v-4.23h-9a.85.85 0 0 0-.63.27.82.82 0 0 0-.26.63.87.87 0 0 0 .26.65.81.81 0 0 0 .63.27h3.73c.594 0 1.183.105 1.74.31a4.45 4.45 0 0 1 1.42.87 4 4 0 0 1 1 1.33 4.17 4.17 0 0 1 .35 1.7 4.41 4.41 0 0 1-.35 1.75 4.651 4.651 0 0 1-1 1.42 4.53 4.53 0 0 1-1.42 1 4.47 4.47 0 0 1-1.74.35H82.8l-1.22-1.65a8.9 8.9 0 0 1-.95.74c-.336.232-.69.436-1.06.61-.37.172-.754.31-1.15.41-.389.1-.788.15-1.19.15a6.76 6.76 0 0 1-2.52-.46 6.45 6.45 0 0 1-2.07-1.31 6.08 6.08 0 0 1-1.39-2.08 7 7 0 0 1-.51-2.73v-1.65c.24-1.12 3.68-3.6 3.68-3.6v5.29a3.38 3.38 0 0 0 .23 1.27c.133.352.337.672.6.94.252.257.556.458.89.59.349.13.718.195 1.09.19a2.25 2.25 0 0 0 1.07-.26c.335-.167.637-.394.89-.67a3.15 3.15 0 0 0 .59-1c.147-.348.222-.722.22-1.1v-7.81h3.74V43.3h9a.85.85 0 0 0 .63-.27.82.82 0 0 0 .26-.63.49.49 0 0 0-.26-.5 1.51 1.51 0 0 0-.63-.12h-3.75a4.45 4.45 0 0 1-1.75-.35 4.761 4.761 0 0 1-1.43-1 4.64 4.64 0 0 1-1-1.43 4.319 4.319 0 0 1-.29-1.82 4.28 4.28 0 0 1 .35-1.75 4.34 4.34 0 0 1 2.38-2.38A4.28 4.28 0 0 1 89 32.7h9V27h3.65zm11.34.2c.363.124.702.31 1 .55.26.231.474.51.63.82.16.309.239.653.23 1 0 .175-.021.35-.06.52a3.257 3.257 0 0 1-.16.51c-.073.164-.16.321-.26.47a2.113 2.113 0 0 1-.34.39c.2.117.385.258.55.42.166.162.307.348.42.55.118.197.209.409.27.63.044.224.057.453.04.68.005.393-.088.781-.27 1.13-.184.346-.439.65-.75.89-.328.26-.701.46-1.1.59a4.41 4.41 0 0 1-2.69 0 3.516 3.516 0 0 1-1.1-.59 2.771 2.771 0 0 1-.75-.89 2.4 2.4 0 0 1-.27-1.13 2.77 2.77 0 0 1 .09-.69c.065-.22.156-.431.27-.63.118-.197.259-.378.42-.54.167-.168.355-.313.56-.43a1.857 1.857 0 0 1-.34-.39 2.712 2.712 0 0 1-.48-1.49c-.003-.347.076-.69.23-1 .161-.308.374-.585.63-.82.28-.235.598-.421.94-.55a3.38 3.38 0 0 1 2.29 0zm7.41 0c.343.129.66.315.94.55.263.231.48.51.64.82.155.31.234.653.23 1 0 .175-.021.35-.06.52a3.257 3.257 0 0 1-.16.51c-.073.164-.16.321-.26.47a2.113 2.113 0 0 1-.34.39c.42.235.766.58 1 1 .115.197.202.41.26.63.039.214.045.433.02.65.005.393-.088.781-.27 1.13a2.89 2.89 0 0 1-.75.89c-.328.26-.701.46-1.1.59a4.41 4.41 0 0 1-2.69 0 3.686 3.686 0 0 1-1.11-.59 2.878 2.878 0 0 1-.74-.89 2.4 2.4 0 0 1-.27-1.13 2.77 2.77 0 0 1 .09-.69 2.53 2.53 0 0 1 .27-.63c.118-.197.259-.378.42-.54.167-.168.355-.313.56-.43a1.857 1.857 0 0 1-.34-.39 2.163 2.163 0 0 1-.26-.47 2.266 2.266 0 0 1-.17-.5 3.224 3.224 0 0 1 0-.52 2.068 2.068 0 0 1 .23-1 2.63 2.63 0 0 1 .63-.82c.28-.235.598-.421.94-.55a3.38 3.38 0 0 1 2.29 0zm-9.22 5.16c-.194.075-.377.18-.54.31a1.478 1.478 0 0 0-.36.46 1.273 1.273 0 0 0 0 1.12c.092.165.214.31.36.43.164.124.346.222.54.29a2.26 2.26 0 0 0 1.33 0c.196-.064.379-.162.54-.29a1.37 1.37 0 0 0 .37-.43 1.31 1.31 0 0 0 .13-.56 1.31 1.31 0 0 0-.5-1.02 1.772 1.772 0 0 0-.54-.31 2.07 2.07 0 0 0-1.33 0zm7.36 0c-.194.075-.377.18-.54.31a1.478 1.478 0 0 0-.36.46c-.186.35-.186.77 0 1.12.092.165.214.31.36.43.164.124.346.222.54.29a2.26 2.26 0 0 0 1.33 0c.195-.066.378-.164.54-.29.149-.116.272-.263.36-.43a1.189 1.189 0 0 0 0-1.12 1.324 1.324 0 0 0-.36-.46 1.908 1.908 0 0 0-.54-.31 2.07 2.07 0 0 0-1.33 0zm.68-3.66a1.282 1.282 0 0 0-.48.09 1.09 1.09 0 0 0-.65.56 1.017 1.017 0 0 0-.09.41.922.922 0 0 0 .09.41c.064.126.152.238.26.33.116.096.248.17.39.22.155.052.317.08.48.08.157 0 .313-.028.46-.08.143-.05.275-.124.39-.22a.922.922 0 0 0 .26-.33.914.914 0 0 0 .1-.41 1.05 1.05 0 0 0-.36-.75 1.226 1.226 0 0 0-.39-.22 1.175 1.175 0 0 0-.46-.09zm-7.36 0a1.282 1.282 0 0 0-.48.09 1.064 1.064 0 0 0-.64.55.861.861 0 0 0-.1.41.804.804 0 0 0 .1.41c.061.128.15.241.26.33.111.098.24.173.38.22a1.45 1.45 0 0 0 1 0c.139-.051.267-.126.38-.22a.922.922 0 0 0 .26-.33.792.792 0 0 0 .05-.4.85.85 0 0 0-.1-.41 1.05 1.05 0 0 0-.26-.34 1.289 1.289 0 0 0-.38-.22 1.267 1.267 0 0 0-.47-.09z" fill="#555"/><path d="M58.24 34c.91 1 5.19 6.22 6.55 12.49 0 .1.17.12.2 0 .85-2.28 6.22-15.13 20.4-17.81.12 0 .13-.2 0-.21-2.65-.25-12.43-.39-20.5 9.47-.08.1-.19.1-.25 0a7.83 7.83 0 0 0-6.31-4.14.12.12 0 0 0-.09.2z" fill="#F3BA0C"/></svg>
